X: 061
T: Farmer Clarkes Frolic
%R: reel
M: 2/4
L: 1/8
Z: 2014 John Chambers <jc:trillian.mit.edu>
B: Chas & Sam Thompson "Twenty Four Country Dances for the Year 1802", London 1802, p.6 #1
F: http://folkopedia.efdss.org/images/4/41/Thompson_24_1802.PDF
K: F
|:\
c2 (f/e/f/g/) | afaf | bg2f | ec2e |\
f2 (f/e/f/g/) | af2d | cbag | f2f2 H:|
|:\
afca | gecg | fd=Bf | {f}e2dc |\
afc'a | gecg | fdc=B | "_ D.C."c4 |]
% - - - - - - - - - - - - - - - - - - - - - - - - -
%%begintext align
%% Swing your Partner with your Right Hand
%% and turn the Sides with your left then with
%% your Right and your Partner with your left lead
%% down the Middle up again & turn your Partner.
%%endtext
% - - - - - - - - - - - - - - - - - - - - - - - - -

%%sep 1 1 500
%%sep 1 1 500
